svg/material-icons/18_up_rating/materialiconstwotone/20px.svg

<svg xmlns="http://www.w3.org/2000/svg" width="20" height="20" viewBox="0 0 20 20"><path d="M11 10.25h1V11h-1zM11 9h1v.75h-1z" opacity=".3"/><path d="M4.5 15.5h11v-11h-11v11zm5.5-7c0-.28.22-.5.5-.5h2c.28 0 .5.22.5.5v3c0 .28-.22.5-.5.5h-2c-.28 0-.5-.22-.5-.5v-3zM7 8h2v4H8V9H7V8z" opacity=".3"/><path d="M15.5 3h-11C3.67 3 3 3.67 3 4.5v11c0 .83.67 1.5 1.5 1.5h11c.83 0 1.5-.67 1.5-1.5v-11c0-.83-.67-1.5-1.5-1.5zm0 12.5h-11v-11h11v11z"/><path d="M8 12h1V8H7v1h1zm2.5 0h2c.28 0 .5-.22.5-.5v-3c0-.28-.22-.5-.5-.5h-2c-.28 0-.5.22-.5.5v3c0 .28.22.5.5.5zm.5-3h1v.75h-1V9zm0 1.25h1V11h-1v-.75z"/></svg>

<svg xmlns="http://www.w3.org/2000/svg" enable-background="new 0 0 20 20" height="20" viewBox="0 0 20 20" width="20"><g><rect fill="none" height="20" width="20"/></g><g><g><rect height=".75" opacity=".3" width="1" x="11" y="10.25"/><rect height=".75" opacity=".3" width="1" x="11" y="9"/><path d="M4.5,15.5h11v-11h-11V15.5z M10,8.5C10,8.22,10.22,8,10.5,8h2C12.78,8,13,8.22,13,8.5v3 c0,0.28-0.22,0.5-0.5,0.5h-2c-0.28,0-0.5-0.22-0.5-0.5V8.5z M7,8h2v4H8V9H7V8z" opacity=".3"/><path d="M15.5,3h-11C3.67,3,3,3.67,3,4.5v11C3,16.33,3.67,17,4.5,17h11c0.83,0,1.5-0.67,1.5-1.5v-11C17,3.67,16.33,3,15.5,3z M15.5,15.5h-11v-11h11V15.5z"/><polygon points="8,12 9,12 9,8 7,8 7,9 8,9"/><path d="M10.5,12h2c0.28,0,0.5-0.22,0.5-0.5v-3C13,8.22,12.78,8,12.5,8h-2C10.22,8,10,8.22,10,8.5v3C10,11.78,10.22,12,10.5,12z M11,9h1v0.75h-1V9z M11,10.25h1V11h-1V10.25z"/></g></g></svg>
